!!!COM: Schubert, Franz
!!!CNT: Deutscher
!!!TXO: Deutsch
!!!OTL: "Abschied"
!!!OPR: Schwanengesang
!!!LYR: Rellstab, Ludwig
!!!ONM: No. 7
!!!ODT: 1828/
!!NB: Vocal melody only encoded.
**kern	**silbe
*clefG2	*
*k[b-e-a-]	*
*M4/4	*
*MM125	*
!! massig geschwind
=8	=8
2r	.
4r	.
8r	.
{8b-	{A-
=9	=9
2.ee-	-de!
8r	.
8g	du
=10	=10
4g	mun-
8f	-tre,
8g	du
4a-	fro2h-
8b-	-lich-
8cc	-e
=11	=11
2b-	Stadt,
4r	.
8r	.
8g	A-
=12	=12
[1b-	-de!
=13	=13
4b-]}	|}
4r	.
4r	.
{4e-	{Schon
=14	=14
4d	schar-
8b-	-ret
8b-	mein
4d	Ro2ss-
8b-	-lein
8b-	mit
=15	=15
4e-	lu-
8ee-	-stig-
8ee-	-em
4b-}	Fuss;}
8r	.
{8b-	{jetzt
=16	=16
4cc	nimm
8ff	noch
8cc	den
4b-	letz-
8ee-	-ten,
8b-	den
=17	=17
4a-	schei-
8cc	-den-
8b-	-den
4g}	Gruss!}
8r	.
{8e-	{du
=18	=18
4d	hast
8b-	mich
8b-	wohl
4d	nie-
8b-	-mals
8b-	noch
=19	=19
4e-	trau-
8ee-	-rig
8ee-	ge-
4b-}	-seh'n,}
8r	.
{8ee-	{so
=20	=20
4gg	kann
8ee-	es
8ee-	auch
4dd	jetzt
8bn	nicht
8bn	beim
=21	=21
4ee-	Ab-
8cc	-scheid
8cc	ge-
4g}	-scheh'n,}
8r	.
{8cc	{so
=22	=22
4ee-	kann
8cc	es
8cc	auch
4b-	jetzt
8g	nicht
8g	beim
=23	=23
4cc	Ab-
8a-	-scheid
8a-	ge-
4e-}	-scheh'n.}
8r	.
{8a-	{A-
=24	=24
2.cc	-de!
8r	.
8cc	du
=25	=25
4cc	mun-
8g	-tre,
8g	du
4a-	fro2h-
8cc	-lich-
8cc	-e
=26	=26
2.cc	Stadt,
4dd	A-
=27	=27
[1ee-	-de!
=28	=28
4ee-]}	|}
4r	.
2r	.
=35	=35
2r	.
4r	.
8r	.
{8e-	{A-
=36	=36
2.cc	-de!
8r	.
8a-	ihr
=37	=37
4cc	Ba2u-
8b-	-me,
8a-	ihr
4b-	Ga2r-
8a-	-ten
8g	so
=38	=38
2a-	gru2n,
4r	.
8r	.
8cc	A-
=39	=39
[1ee-	-de!
=40	=40
4ee-]}	|}
4r	.
4r	.
{4a-	{Nun
=41	=41
4g	reit'
8b-	ich
8b-	am
4g	sil-
8e-	-ber-
8e-	-nen
=42	=42
4a-	Stro-
8cc	-me
8ee-	ent-
4cc}	-lang,}
8r	.
{8cc	{weit
=43	=43
4dd-	schal-
8a-	-lend
8a-	er-
8f	-to2-
8a-	|
8dd-	-net
8ff	mein
=44	=44
4ee-	Ab-
8cc	-schieds-
8cc	-ges-
4a-}	-sang;}
8r	.
{8a-	{nie
=45	=45
4g	habt
8b-	ihr
8b-	ein
4g	trau-
8e-	-rig-
8e-	-es
=46	=46
4a-	Lied
8cc	ge-
8ee-	|
4cc}	-ho2rt,}
8r	.
{8cc	{so
=47	=47
4aa-	wird
8ff	euch
8ff	auch
4een	kei-
8cc	-nes
8cc	beim
=48	=48
4ff	Schei-
8cc	-den
8a-	be-
4f}	-scheert,}
8r	.
{8a-	{so
=49	=49
4ff	wird
8dd-	euch
8dd-	auch
4cc	kei-
8a-	-nes
8a-	beim
=50	=50
4dd-	Schei-
8a-	-den
8f	be-
4d-}	-scheert.}
8r	.
{8dd-	{A-
=51	=51
2.ff	-de!
8r	.
8ff	Ihr
=52	=52
4ff	Ba2u-
8cc	-me,
8cc	ihr
4dd-	Ga2r-
8ff	-ten
8ff	so
=53	=53
2ff	gru2n,
4r	.
4e-	A-
=54	=54
[1cc	-de!
=55	=55
4cc]}	|}
4r	.
2r	.
=58	=58
2r	.
4r	.
8r	.
{8b-	{A-
=59	=59
2.ee-	-de!
8r	.
8g	ihr
=60	=60
4g	freund-
8f	-lich-
8g	-en
4a-	Ma2g-
8b-	-lein
8cc	|
=61	=61
2b-	dort,
4r	.
8r	.
8g	A-
=62	=62
[1b-	-de!
=63	=63
4b-]}	|}
4r	.
4r	.
{4e-	{Was
=64	=64
4d	schaut
8b-	ihr
8b-	aus
4d	blu-
8b-	-men-
8b-	-um-
=65	=65
4e-	-duf-
8ee-	-tet-
8e--	-em
4b-}	Haus}
8r	.
{8b-	{mit
=66	=66
4cc	schel-
8gg	-mi-
8cc	-schen,
4b-	lo-
8ee-	-cken-
8b-	-den
=67	=67
4a-	Bli-
8cc	-cken
8c-	her-
4g}	-aus?}
8r	.
{8e-	{Wie
=68	=68
4d	sonst,
4b-	so
4d	gru2ss'
8b-	ich
8b-	und
=69	=69
4e-	schau-
8ee-	-e
8ee-	mich
4b-}	um,}
8r	.
{8ee-	{doch
=70	=70
4.gg	nim-
8ee-	-mer
4dd	wend'
8bn	ich
8bn	mein
=71	=71
4ee-	Ro2ss-
4cc	-lein
4g}	um,}
8r	.
{8cc	{doch
=72	=72
4.ee-	nim-
8cc	-mer
4b-	wend'
8g	ich
8g	mein
=73	=73
4cc	Ro2ss-
4a-	-lein
4e-}	um.}
8r	.
{8a-	{A-
=74	=74
2.cc	-de!
8r	.
8cc	ihr
=75	=75
4cc	freund-
8g	-lich-
8g	-en
4a-	Ma2gd-
4cc	-lein
=76	=76
2cc	dort,
4r	.
4dd	A-
=77	=77
[1ee-	-de!
=78	=78
4ee-]}	|}
4r	.
2r	.
=85	=85
2r	.
4r	.
8r	.
{8e-	{A-
=86	=86
2.cc	de!
8cc	Lei-
8cc	-be
=87	=87
4cc	Son-
8b-	-ne,
8a-	so
4b-	gehst
8a-	du
8g	zur
=88	=88
2.a-	Ruh,
8r	.
8cc	A-
=89	=89
[1ee-	de!
=90	=90
4ee-]}	|}
4r	.
4r	.
{4a-	{Nun
=91	=91
4g	schim-
8b-	-mert
8b-	der
4g	blin-
8e-	-ken-
8e-	-den
=92	=92
4a-	Ster-
8cc	-ne
8ee-	|
4cc}	Gold;}
8r	.
{8cc	{wie
=93	=93
4dd-	bin
8a-	ich
8a-	euch
8f	Stern-
8a-	|
8dd-	-lein
8ff	am
=94	=94
4ee-	Him-
8cc	-mel
8cc	so
4a-}	hold;}
8r	.
{8a-	{durch-
=95	=95
4g	-ziehn
8b-	wir
8b-	die
4g	Welt
4e-	auch
=96	=96
4a-	weit
8cc	und
8ee-	|
4cc}	breit,}
{8cc	{ihr
8cc	gebt
=97	=97
4aa-	u2-
8ff	-ber-
8ff	-all
4een	uns
4cc	das
=98	=98
4ff	treu-
8cc	-e
8a-	Gel-
4f}	-eit,}
{8a-	{ihr
8a-	gebt
=99	=99
4ff	u2-
8dd-	-ber-
8dd-	-all
4cc	uns
4a-	das
=100	=100
4dd-	treu-
8a-	-e
8f	Ge-
4d-}	-leit.}
8r	.
{8dd-	{A-
=101	=101
2.ff	-de!
8ff	Lie-
8ff	-be
=102	=102
4ff	Son-
8cc	-ne,
8cc	so
4dd-	gehst
8ff	du
8ff	zur
=103	=103
2.ff	Ruh,
4ee-	A-
=104	=104
[1cc	-de!
=105	=105
4cc]}	|}
4r	.
2r	.
=108	=108
2r	.
4r	.
8r	.
{8b-	{A-
=109	=109
2.ee-	-de!
8r	.
8g	Du
=110	=110
4g	schim-
8f	-mern-
8g	-des
4a-	Fen-
8b-	-ster-
8cc	-lein
=111	=111
2.b-	hell,
8r	.
8g	A-
=112	=112
[1b-	-de!
=113	=113
4b-]}	|}
4r	.
4r	.
{4e-	{Du
=114	=114
4d	gla2nz-
8b-	-est
8b-	so
4d	trau-
8b-	-lich
8b-	mit
=115	=115
4e-	da2mm-
8ee-	-ern-
8ee-	-dem
4b-}	Schein,}
8r	.
{8b-	{und
=116	=116
4cc	la-
8gg	-dest
8cc	so
4b-	freund-
8ee-	-lich
8b-	ins
=117	=117
4a-	Hu2tt-
8cc	-chen
8b-	uns
4g}	ein.}
8r	.
{8e-	{Vor-
=118	=118
4d	-u2-
8b-	-ber,
8b-	ach,
4d	ritt
8b-	ich
8b-	so
=119	=119
4e-	man-
4ee-	-ches-
4b-}	-mal}
8r	.
{8ee-	{und
=120	=120
4gg	wa2r
8ee-	es
8ee-	denn
4dd	heu-
8bn	-te
8bn	zum
=121	=121
4ee-	letz-
4cc	-ten
4g}	mal,}
8r	.
{8cc	{und
=122	=122
4ee-	wa2r'
8cc	es
8cc	denn
4b-	heu-
8g	-te
8g	zum
=123	=123
4cc	letz-
4a-	-ten
4e-}	mal?}
8r	.
{8a-	{A-
=124	=124
2.cc	-de!
8r	.
8cc	Du
=125	=125
4cc	schimm-
8g	-ern-
8g	-des
4a-	Fen-
8cc	-ster-
8cc	-lein
=126	=126
2cc	hell,
4r	.
4dd	A-
=127	=127
[1ee-	-de!
=128	=128
4ee-]}	|}
4r	.
2r	.
=133	=133
2r	.
4r	.
8r	.
{8cc-	{A-
=134	=134
2.ee-	-de!
8r	.
8cc-	Ihr
=135	=135
4cc-	Ster-
8dd-	-ne
8ee-	ver-
4dd-	-hu2l-
8cc-	-let
8b-	euch
=136	=136
2cc-	grau!
4r	.
8r	.
8ee-	A-
=137	=137
[1gg-	-de!
=138	=138
4gg-]}	|}
4r	.
4r	.
{4cc-	{des
=139	=139
4b-	Fen-
8dd-	-ster-
8dd-	-lein
4b-	tru2-
8g-	-bes
8g-	ver-
=140	=140
4cc-	-schim-
8ee-	-mern-
8gg-	-des
4ee-}	Licht}
8r	.
{8ee-	{er-
=141	=141
4ff-	-stezt
8cc-	ihr
8cc-	un-
8aa-	-za2h-
8ff-	|
8cc-	-lig-
8a-	-en
=142	=142
4g-	Ster-
8cc-	-ne
8ee-	mir
4cc-}	nicht.}
4r	.
=144	=144
2r	.
4r	.
{8ee-	{Darf
8ee-	ich
=145	=145
(4ee-	heir
8gn)	|
8g	nicht
4g	wei-
8ee-	-len,
8ff-	muss
=146	=146
(4ee-	hier
8a-)	|
8a-	vor-
4a-}	-bei,}
8r	.
{8ee-	{was
=147	=147
4ddn	hilft
4ff	es,
4dd	folgt
8b-	ihr
8b-	mir
=148	=148
4.ee-	noch
8gg-	so
4ee-}	treu!}
{8ee-	{darf
8ee-	ich
=149	=149
4ggn	hier
4ee-	nicht
4dd	wei-
8bn	-len,
8bn	muss
=150	=150
4ee-	hier
4cc	vor-
4g}	-bei}
8r	.
{8cc	{was
=151	=151
4ee-	hilft
4cc	es,
4b-	folgt
8g	ihr
8g	mir
=152	=152
4cc	noch
4a-	so
4e-}	treu!}
8r	.
{8a-	{A-
=153	=153
2.cc	de!
8r	.
8cc	Ihr
=154	=154
4cc	Ster-
8g	-ne
8g	ver-
4a-	-hu2l-
8cc	-let
8cc	euch
=155	=155
2.cc	grau!
4dd	A-
=156	=156
[1ee-	-de!
=157	=157
4ee-]}	|}
4r	.
2r	.
*-	*-
